svg/24/temperature-cool--filled.svg

<svg width="24" height="24" viewBox="0 0 24 24" fill="currentColor" xmlns="http://www.w3.org/2000/svg"><path fill-rule="evenodd" clip-rule="evenodd" d="M5 5.5C5 4.11929 6.11929 3 7.5 3C8.88071 3 10 4.11929 10 5.5V12.7578C11.206 13.565 12 14.9398 12 16.5C12 18.9853 9.98528 21 7.5 21C5.01472 21 3 18.9853 3 16.5C3 14.9398 3.79401 13.565 5 12.7578V5.5ZM6.5 13.5587L5.83439 14.0043C5.15908 14.4563 4.68027 15.1709 4.5414 16H10.4586C10.3197 15.1709 9.84092 14.4563 9.16561 14.0043L8.5 13.5587V5.5C8.5 4.94772 8.05228 4.5 7.5 4.5C6.94772 4.5 6.5 4.94772 6.5 5.5V13.5587Z"/><path d="M15.75 6.18934V3.75C15.75 3.33579 15.4142 3 15 3C14.5858 3 14.25 3.33579 14.25 3.75V9.25H12.75C12.3358 9.25 12 9.58579 12 10C12 10.4142 12.3358 10.75 12.75 10.75H14.25V16.25C14.25 16.6642 14.5858 17 15 17C15.4142 17 15.75 16.6642 15.75 16.25V13.8107L17.4697 15.5303C17.7626 15.8232 18.2374 15.8232 18.5303 15.5303C18.8232 15.2374 18.8232 14.7626 18.5303 14.4697L15.75 11.6893V10.75H16.6893L19.4697 13.5303C19.7626 13.8232 20.2374 13.8232 20.5303 13.5303C20.8232 13.2374 20.8232 12.7626 20.5303 12.4697L18.8107 10.75H21.25C21.6642 10.75 22 10.4142 22 10C22 9.58579 21.6642 9.25 21.25 9.25H18.8107L20.5303 7.53033C20.8232 7.23744 20.8232 6.76256 20.5303 6.46967C20.2374 6.17678 19.7626 6.17678 19.4697 6.46967L16.6893 9.25H15.75V8.31066L18.5303 5.53033C18.8232 5.23744 18.8232 4.76256 18.5303 4.46967C18.2374 4.17678 17.7626 4.17678 17.4697 4.46967L15.75 6.18934Z"/></svg>

<svg xmlns="http://www.w3.org/2000/svg" width="24" height="24" fill="currentColor" viewBox="0 0 24 24">
  <path fill-rule="evenodd" d="M5 5.5a2.5 2.5 0 0 1 5 0v7.258a4.5 4.5 0 1 1-5 0V5.5Zm1.5 8.059-.666.445A3 3 0 0 0 4.541 16h5.918a3 3 0 0 0-1.293-1.996L8.5 13.56V5.5a1 1 0 0 0-2 0v8.059Z" clip-rule="evenodd"/>
  <path d="M15.75 6.19V3.75a.75.75 0 0 0-1.5 0v5.5h-1.5a.75.75 0 0 0 0 1.5h1.5v5.5a.75.75 0 0 0 1.5 0v-2.44l1.72 1.72a.75.75 0 1 0 1.06-1.06l-2.78-2.78v-.94h.94l2.78 2.78a.75.75 0 1 0 1.06-1.06l-1.72-1.72h2.44a.75.75 0 0 0 0-1.5h-2.44l1.72-1.72a.75.75 0 0 0-1.06-1.06l-2.78 2.78h-.94v-.94l2.78-2.78a.75.75 0 0 0-1.06-1.06l-1.72 1.72Z"/>
</svg>
